client/src/components/Header/logo.svg

<?xml version="1.0" encoding="UTF-8"?>
<svg version="1.1" viewBox="0 0 2000 1247" xmlns="http://www.w3.org/2000/svg">
<g transform="translate(-1.2121 .50486)">
<svg width="2e3" height="1247" data-background-color="#FFFFFF" viewBox="0 0 396 247" xmlns="http://www.w3.org/2000/svg" xmlns:xlink="http://www.w3.org/1999/xlink">
<g transform="translate(.24 -.1)">
<svg width="395.52" height="247.2" viewBox="0 0 395.52 247.2">
<svg/>
<svg width="395.52" height="247.2" viewBox="0 0 395.52 247.2">
<g transform="translate(39.552 82.55)">
<svg width="316.42" height="82.099" viewBox="0 0 316.416 82.09937701679289">
<svg width="316.42" height="82.099" viewBox="0 0 316.416 82.09937701679289">
<svg width="316.42" height="82.099" viewBox="0 0 316.416 82.09937701679289">
<svg width="316.42" height="82.099" viewBox="0 0 316.416 82.09937701679289">
<svg width="316.42" height="82.099" viewBox="0 0 316.416 82.09937701679289">
<svg width="316.42" height="82.099" viewBox="0 0 316.416 82.09937701679289">
<g>
<svg width="316.42" height="82.099" data-palette-color="#655C56" viewBox="0.65 -38.8 151.84 39.4">
<path class="undefined-text-0" d="m0.65-34.65h27.65v5.45h-10.65v29.2h-6.35v-29.2h-10.65v-5.45zm38.25 8.5v26.15h-6.05v-26.15h6.05zm0.65-7.65q0 1.7-1.1 2.7t-2.6 1q-1.55 0-2.65-1t-1.1-2.7q0-1.75 1.1-2.75t2.65-1q1.5 0 2.6 1t1.1 2.75zm13.1-5v22.85q1.15-1.2 2.45-2.58 1.3-1.37 2.55-2.75 1.25-1.37 2.37-2.65 1.13-1.27 1.93-2.22h7.14q-2.5 2.8-5.27 5.8t-5.57 5.85q1.5 1.25 3.15 3.02 1.65 1.78 3.19 3.78 1.56 2 2.91 4 1.34 2 2.25 3.7h-7q-0.9-1.55-2.08-3.25-1.17-1.7-2.52-3.3t-2.75-3.03q-1.4-1.42-2.75-2.42v12h-6.05v-37.8l6.05-1zm27.54 0v22.85q1.15-1.2 2.45-2.58 1.3-1.37 2.55-2.75 1.25-1.37 2.38-2.65 1.12-1.27 1.92-2.22h7.15q-2.5 2.8-5.27 5.8-2.78 3-5.58 5.85 1.5 1.25 3.15 3.02 1.65 1.78 3.2 3.78t2.9 4 2.25 3.7h-7q-0.9-1.55-2.07-3.25-1.18-1.7-2.53-3.3t-2.75-3.03q-1.4-1.42-2.75-2.42v12h-6.05v-37.8l6.05-1zm27.6 12.65v26.15h-6.05v-26.15h6.05zm0.65-7.65q0 1.7-1.1 2.7t-2.6 1q-1.55 0-2.65-1t-1.1-2.7q0-1.75 1.1-2.75t2.65-1q1.5 0 2.6 1t1.1 2.75zm6.75 23.4v-22.65l6.05-1v7.9h9.3v5.05h-9.3v10.65q0 3.15 1 4.5t3.4 1.35q1.65 0 2.92-0.35 1.28-0.35 2.03-0.65l1 4.8q-1.05 0.45-2.75 0.93-1.7 0.47-4 0.47-2.8 0-4.68-0.75-1.87-0.75-2.97-2.18-1.1-1.42-1.55-3.45-0.45-2.02-0.45-4.62zm20.9 0v-22.65l6.04-1v7.9h9.31v5.05h-9.31v10.65q0 3.15 1 4.5t3.4 1.35q1.66 0 2.93-0.35t2.02-0.65l1.01 4.8q-1.05 0.45-2.76 0.93-1.7 0.47-4 0.47-2.79 0-4.67-0.75-1.87-0.75-2.97-2.18-1.11-1.42-1.56-3.45-0.44-2.02-0.44-4.62z" fill="#655C56" data-fill-palette-color="primary"/>
</svg>
</g>
</svg>
</svg>
</svg>
</svg>
</svg>
</svg>
</g>
<path d="m0 247.2v-247.2h395.52v247.2zm388.12-7.404v-232.39h-380.71v232.39z" fill="#655C56" data-fill-palette-color="tertiary"/>
</svg>
</svg>
<rect width="395.52" height="247.2" fill="none" visibility="hidden"/>
</g>
</svg>
</g>
</svg>

<svg xmlns="http://www.w3.org/2000/svg" version="1.1" xmlns:xlink="http://www.w3.org/1999/xlink" xmlns:svgjs="http://svgjs.dev/svgjs" width="2000" height="1247" viewBox="0 0 2000 1247"><g transform="matrix(1,0,0,1,-1.2121212121212466,0.504858299595071)"><svg viewBox="0 0 396 247" data-background-color="#ffffff" preserveAspectRatio="xMidYMid meet" height="1247" width="2000" xmlns="http://www.w3.org/2000/svg" xmlns:xlink="http://www.w3.org/1999/xlink"><defs></defs><g id="tight-bounds" transform="matrix(1,0,0,1,0.2400000000000091,-0.09999999999999432)"><svg viewBox="0 0 395.52 247.2" height="247.2" width="395.52"><g><svg></svg></g><g><svg viewBox="0 0 395.52 247.2" height="247.2" width="395.52"><g transform="matrix(1,0,0,1,39.55199999999999,82.55031149160355)"><svg viewBox="0 0 316.416 82.09937701679289" height="82.09937701679289" width="316.416"><g><svg viewBox="0 0 316.416 82.09937701679289" height="82.09937701679289" width="316.416"><g><svg viewBox="0 0 316.416 82.09937701679289" height="82.09937701679289" width="316.416"><g><svg viewBox="0 0 316.416 82.09937701679289" height="82.09937701679289" width="316.416"><g><svg viewBox="0 0 316.416 82.09937701679289" height="82.09937701679289" width="316.416"><g><svg viewBox="0 0 316.416 82.09937701679289" height="82.09937701679289" width="316.416"><g transform="matrix(1,0,0,1,0,0)"><svg width="316.416" viewBox="0.65 -38.8 151.84 39.4" height="82.09937701679289" data-palette-color="#655c56"><path d="M0.65-34.65L28.3-34.65 28.3-29.2 17.65-29.2 17.65 0 11.3 0 11.3-29.2 0.65-29.2 0.65-34.65ZM38.9-26.15L38.9 0 32.85 0 32.85-26.15 38.9-26.15ZM39.55-33.8L39.55-33.8Q39.55-32.1 38.45-31.1 37.35-30.1 35.85-30.1L35.85-30.1Q34.3-30.1 33.2-31.1 32.1-32.1 32.1-33.8L32.1-33.8Q32.1-35.55 33.2-36.55 34.3-37.55 35.85-37.55L35.85-37.55Q37.35-37.55 38.45-36.55 39.55-35.55 39.55-33.8ZM52.65-38.8L52.65-15.95Q53.8-17.15 55.1-18.53 56.4-19.9 57.65-21.28 58.9-22.65 60.02-23.93 61.15-25.2 61.95-26.15L61.95-26.15 69.09-26.15Q66.59-23.35 63.82-20.35 61.05-17.35 58.25-14.5L58.25-14.5Q59.75-13.25 61.4-11.48 63.05-9.7 64.59-7.7 66.15-5.7 67.5-3.7 68.84-1.7 69.75 0L69.75 0 62.75 0Q61.85-1.55 60.67-3.25 59.5-4.95 58.15-6.55 56.8-8.15 55.4-9.58 54-11 52.65-12L52.65-12 52.65 0 46.6 0 46.6-37.8 52.65-38.8ZM80.19-38.8L80.19-15.95Q81.34-17.15 82.64-18.53 83.94-19.9 85.19-21.28 86.44-22.65 87.57-23.93 88.69-25.2 89.49-26.15L89.49-26.15 96.64-26.15Q94.14-23.35 91.37-20.35 88.59-17.35 85.79-14.5L85.79-14.5Q87.29-13.25 88.94-11.48 90.59-9.7 92.14-7.7 93.69-5.7 95.04-3.7 96.39-1.7 97.29 0L97.29 0 90.29 0Q89.39-1.55 88.22-3.25 87.04-4.95 85.69-6.55 84.34-8.15 82.94-9.58 81.54-11 80.19-12L80.19-12 80.19 0 74.14 0 74.14-37.8 80.19-38.8ZM107.79-26.15L107.79 0 101.74 0 101.74-26.15 107.79-26.15ZM108.44-33.8L108.44-33.8Q108.44-32.1 107.34-31.1 106.24-30.1 104.74-30.1L104.74-30.1Q103.19-30.1 102.09-31.1 100.99-32.1 100.99-33.8L100.99-33.8Q100.99-35.55 102.09-36.55 103.19-37.55 104.74-37.55L104.74-37.55Q106.24-37.55 107.34-36.55 108.44-35.55 108.44-33.8ZM115.19-10.4L115.19-33.05 121.24-34.05 121.24-26.15 130.54-26.15 130.54-21.1 121.24-21.1 121.24-10.45Q121.24-7.3 122.24-5.95 123.24-4.6 125.64-4.6L125.64-4.6Q127.29-4.6 128.56-4.95 129.84-5.3 130.59-5.6L130.59-5.6 131.59-0.8Q130.54-0.35 128.84 0.13 127.14 0.6 124.84 0.6L124.84 0.6Q122.04 0.6 120.16-0.15 118.29-0.9 117.19-2.33 116.09-3.75 115.64-5.78 115.19-7.8 115.19-10.4L115.19-10.4ZM136.09-10.4L136.09-33.05 142.13-34.05 142.13-26.15 151.44-26.15 151.44-21.1 142.13-21.1 142.13-10.45Q142.13-7.3 143.13-5.95 144.13-4.6 146.53-4.6L146.53-4.6Q148.19-4.6 149.46-4.95 150.73-5.3 151.48-5.6L151.48-5.6 152.49-0.8Q151.44-0.35 149.73 0.13 148.03 0.6 145.73 0.6L145.73 0.6Q142.94 0.6 141.06-0.15 139.19-0.9 138.09-2.33 136.98-3.75 136.53-5.78 136.09-7.8 136.09-10.4L136.09-10.4Z" opacity="1" transform="matrix(1,0,0,1,0,0)" fill="#655c56" class="undefined-text-0" data-fill-palette-color="primary" id="text-0"></path></svg></g></svg></g></svg></g></svg></g></svg></g></svg></g></svg></g><g><path d="M0 247.2v-247.2h395.52v247.2zM388.116 239.796v-232.392h-380.712v232.392z" fill="#655c56" data-fill-palette-color="tertiary"></path></g></svg></g></svg><rect width="395.52" height="247.2" fill="none" stroke="none" visibility="hidden"></rect></g></svg></g></svg>
